packages/dnb-eufemia/assets/icons/photo.svg

<svg width="16" height="16" viewBox="0 0 16 16" fill="none" xmlns="http://www.w3.org/2000/svg">
<path d="M3.54545 11.1818L5.73106 8.49617C6.04472 8.11049 6.63826 8.03216 7.05676 8.32123C7.09271 8.34606 7.12669 8.37322 7.15846 8.4025L7.80682 9.00002L9.89015 6.44005C10.2039 6.05446 10.7975 5.97631 11.2159 6.2655C11.2877 6.31512 11.3515 6.37389 11.4053 6.44005L13.0909 8.5113M1 11.1818H15M1.93333 15C1.41787 15 1 14.5821 1 14.0667V1.93333C1 1.41787 1.41787 1 1.93333 1H14.0667C14.5821 1 15 1.41787 15 1.93333V14.0667C15 14.5821 14.5821 15 14.0667 15H1.93333Z" stroke="black" stroke-width="1.5" stroke-linecap="round" stroke-linejoin="round"/>
<circle cx="4.25" cy="4.25" r="1.25" fill="black"/>
</svg>

<svg width="16" height="16" viewBox="0 0 16 16" fill="none" xmlns="http://www.w3.org/2000/svg"><path d="m3.545 11.182 2.186-2.686c.314-.386.907-.464 1.326-.175a.93.93 0 0 1 .101.082L7.807 9 9.89 6.44c.314-.386.907-.464 1.326-.175.072.05.136.109.19.175l1.685 2.071M1 11.181h14M4.095 4.247h.346M1.933 15A.933.933 0 0 1 1 14.067V1.933C1 1.418 1.418 1 1.933 1h12.134c.515 0 .933.418.933.933v12.134a.933.933 0 0 1-.933.933H1.933ZM4.521 4.246c0 .184-.16.244-.249.244-.091 0-.251-.06-.251-.244 0-.196.16-.256.251-.256.089 0 .249.06.249.256Z" stroke="#000" stroke-width="1.5" stroke-linecap="round" stroke-linejoin="round"/></svg>
